X: 103
T:Bourree Aurore Sand
M:2/4
L:1/8
S:trad. Berry region
R:Bourree
Z:Steve Mansfield
K:Gm
d |: G>A Bc | d3d | dg ^fg | d3c/d/ | e>d cA |
B>A GB | A>G AB | G3d :: d>c Bc | d>c Bc |
d>c de | d>c Bc | d>c de | d>c Bc | d>c BA | G3d :|
<end>
<start>
